Papirus-nordic/48x48/places/folder-red-script.svg

<svg xmlns="http://www.w3.org/2000/svg" width="48" height="48" version="1"><rect width="40" height="26" x="4" y="17" rx="2" ry="2" opacity=".2"/><path d="M4 34c0 1.108.892 2 2 2h36c1.108 0 2-.892 2-2V12c0-1.108-.892-2-2-2H22V8c0-1.108-.892-2-2-2H6c-1.108 0-2 .892-2 2" fill="#ae4f58"/><rect width="40" height="26" x="4" y="15" rx="2" ry="2" opacity=".2"/><rect width="36" height="16" x="6" y="13" rx="2" ry="2" fill="#e4e4e4"/><rect width="40" height="26" x="4" y="16" rx="2" ry="2" fill="#bf616a"/><path d="M6 6c-1.108 0-2 .892-2 2v1c0-1.108.892-2 2-2h14c1.108 0 2 .892 2 2V8c0-1.108-.892-2-2-2zm16 4v1h20c1.108 0 2 .892 2 2v-1c0-1.108-.892-2-2-2z" opacity=".1" fill="#fff"/><path d="M16 21v16h16V21z" fill="#974a4d"/><g fill="#bf616a"><path d="M24 29h4v1h-4zM20 23h1v7h-1z"/><path d="M19.5 24c-.83 0-1.5.67-1.5 1.5s.67 1.5 1.5 1.5h2c.28 0 .5.22.5.5s-.22.51-.5.5h-3.41c.21.58.76 1 1.41 1h2c.83 0 1.5-.67 1.5-1.5s-.67-1.5-1.5-1.5h-2c-.28 0-.5-.22-.5-.5s.22-.5.5-.5h3.41c-.21-.58-.76-1-1.41-1H21z"/></g></svg>

<svg xmlns="http://www.w3.org/2000/svg" width="48" height="48" version="1">
 <rect style="opacity:0.2" width="40" height="26" x="4" y="17" rx="2" ry="2"/>
 <path style="fill:#ae4f58" d="M 4,34 C 4,35.108 4.892,36 6,36 H 42 C 43.108,36 44,35.108 44,34 V 12 C 44,10.892 43.108,10 42,10 H 24 C 21,10 20,6 17,6 H 6 C 4.892,6 4,6.892 4,8"/>
 <rect style="opacity:0.2" width="40" height="26" x="4" y="15" rx="2" ry="2"/>
 <rect style="fill:#e4e4e4" width="36" height="16" x="6" y="13" rx="2" ry="2"/>
 <rect style="fill:#bf616a" width="40" height="26" x="4" y="16" rx="2" ry="2"/>
 <path style="opacity:0.1;fill:#ffffff" d="M 6,6 C 4.892,6 4,6.892 4,8 V 9 C 4,7.892 4.892,7 6,7 H 17 C 20,7 21,11 24,11 H 42 C 43.108,11 44,11.892 44,13 V 12 C 44,10.892 43.108,10 42,10 H 24 C 21,10 20,6 17,6 Z"/>
 <path style="fill:#974a4d" d="M 16,21 V 37 H 32 V 21 Z"/>
 <g style="fill:#bf616a">
  <path style="fill:#bf616a" d="M 24,29 H 28 V 30 H 24 Z"/>
  <rect style="fill:#bf616a" width="1" height="7" x="20" y="23"/>
  <path style="fill:#bf616a" d="M 19.5,24 C 18.67,24 18,24.67 18,25.5 18,26.33 18.67,27 19.5,27 H 21 21.5 C 21.78,27 22,27.22 22,27.5 22,27.78 21.78,28.01 21.5,28 H 21 19.5 18.09 C 18.3,28.58 18.85,29 19.5,29 H 21 21.5 C 22.33,29 23,28.33 23,27.5 23,26.67 22.33,26 21.5,26 H 21 19.5 C 19.22,26 19,25.78 19,25.5 19,25.22 19.22,25 19.5,25 H 21 21.5 22.91 C 22.7,24.42 22.15,24 21.5,24 H 21 Z"/>
 </g>
</svg>
